Assets/white_bag 1.svg

<svg width="38" height="41" viewBox="0 0 38 41" fill="none" xmlns="http://www.w3.org/2000/svg">
<g clip-path="url(#clip0)">
<path d="M37.7549 13.9701C37.6633 13.8733 37.5523 13.8003 37.4304 13.7566C37.3084 13.7129 37.1788 13.6996 37.0513 13.7179H26.9702V8.93948C26.9814 7.80889 26.7835 6.68715 26.3879 5.63915C25.9924 4.59116 25.4071 3.63772 24.6658 2.834C23.9245 2.03028 23.0421 1.39223 22.0695 0.956782C21.0968 0.521331 20.0534 0.297119 18.9995 0.297119C17.9456 0.297119 16.9021 0.521331 15.9295 0.956782C14.9569 1.39223 14.0744 2.03028 13.3332 2.834C12.5919 3.63772 12.0066 4.59116 11.611 5.63915C11.2155 6.68715 11.0176 7.80889 11.0287 8.93948V13.7179H0.947646C0.666743 13.7179 0.38584 13.7179 0.24494 13.9701C0.151613 14.0658 0.081489 14.1845 0.0406661 14.3159C-0.000156704 14.4473 -0.0104421 14.5874 0.0107044 14.724L3.52693 35.3482C3.76529 36.7443 4.44737 38.0085 5.45702 38.9256C6.46667 39.8427 7.74144 40.3559 9.06422 40.3779H28.9401C30.2664 40.343 31.5408 39.8185 32.5487 38.8931C33.5565 37.9676 34.2361 36.6976 34.4729 35.2972L37.9892 14.724C38.0098 14.5874 37.9993 14.4474 37.9585 14.3161C37.9177 14.1848 37.8479 14.0661 37.7549 13.9701ZM12.9044 8.93948C12.9044 7.20513 13.5466 5.54182 14.6898 4.31545C15.8329 3.08908 17.3833 2.40012 18.9999 2.40012C20.6166 2.40012 22.167 3.08908 23.3101 4.31545C24.4532 5.54182 25.0954 7.20513 25.0954 8.93948V13.7179H12.9044V8.93948ZM32.5973 35.0459C32.4443 35.97 31.995 36.8076 31.3271 37.4138C30.6593 38.0201 29.8149 38.3568 28.9401 38.3657H9.06422C8.18865 38.3579 7.34322 38.0217 6.67445 37.4154C6.00568 36.809 5.55574 35.9708 5.40261 35.0459L2.07305 15.7301H35.9259L32.5973 35.0459Z" fill="white"/>
<path d="M26.0335 25.5393C26.1566 25.5393 26.2785 25.5133 26.3923 25.4627C26.506 25.4121 26.6093 25.338 26.6963 25.2446C26.7834 25.1511 26.8524 25.0402 26.8994 24.9181C26.9464 24.7961 26.9706 24.6653 26.9705 24.5332V21.5148C26.9743 21.3801 26.953 21.246 26.9076 21.1203C26.8623 20.9947 26.7938 20.8801 26.7064 20.7833C26.619 20.6866 26.5143 20.6097 26.3986 20.5571C26.283 20.5046 26.1587 20.4775 26.0331 20.4775C25.9075 20.4775 25.7831 20.5046 25.6675 20.5571C25.5518 20.6097 25.4472 20.6866 25.3597 20.7833C25.2723 20.8801 25.2039 20.9947 25.1585 21.1203C25.1132 21.246 25.0918 21.3801 25.0957 21.5148V24.5332C25.0957 24.8 25.1945 25.0559 25.3704 25.2446C25.5462 25.4333 25.7848 25.5393 26.0335 25.5393Z" fill="white"/>
<path d="M11.9666 25.5392C12.2154 25.5392 12.4539 25.4332 12.6298 25.2445C12.8057 25.0558 12.9045 24.7999 12.9045 24.5331V21.5147C12.9045 21.2478 12.8057 20.9919 12.6298 20.8032C12.4539 20.6145 12.2154 20.5085 11.9666 20.5085C11.7179 20.5085 11.4794 20.6145 11.3035 20.8032C11.1276 20.9919 11.0288 21.2478 11.0288 21.5147V24.5331C11.0288 24.7999 11.1276 25.0558 11.3035 25.2445C11.4794 25.4332 11.7179 25.5392 11.9666 25.5392Z" fill="white"/>
</g>
<defs>
<clipPath id="clip0">
<rect width="38" height="40.767" fill="white"/>
</clipPath>
</defs>
</svg>

<?xml version="1.0" encoding="utf-8"?>
<!-- Generator: Adobe Illustrator 24.3.0, SVG Export Plug-In . SVG Version: 6.00 Build 0)  -->
<svg version="1.1" id="Layer_1" xmlns="http://www.w3.org/2000/svg" xmlns:xlink="http://www.w3.org/1999/xlink" x="0px" y="0px"
	 viewBox="0 0 38 41" style="enable-background:new 0 0 38 41;" xml:space="preserve">
<style type="text/css">
	.st0{clip-path:url(#SVGID_2_);}
</style>
<g>
	<defs>
		<rect id="SVGID_1_" width="38" height="40.8"/>
	</defs>
	<clipPath id="SVGID_2_">
		<use xlink:href="#SVGID_1_"  style="overflow:visible;"/>
	</clipPath>
	<g class="st0">
		<path d="M37.8,14c-0.1-0.1-0.2-0.2-0.3-0.2c-0.1,0-0.3-0.1-0.4,0H27V8.9c0-1.1-0.2-2.3-0.6-3.3c-0.4-1-1-2-1.7-2.8S23,1.4,22.1,1
			c-1-0.4-2-0.7-3.1-0.7S16.9,0.5,15.9,1c-1,0.4-1.9,1.1-2.6,1.9c-0.7,0.8-1.3,1.8-1.7,2.8c-0.4,1-0.6,2.2-0.6,3.3v4.8H0.9
			c-0.3,0-0.6,0-0.7,0.3c-0.1,0.1-0.2,0.2-0.2,0.3c0,0.1-0.1,0.3,0,0.4l3.5,20.6c0.2,1.4,0.9,2.7,1.9,3.6c1,0.9,2.3,1.4,3.6,1.5
			h19.9c1.3,0,2.6-0.6,3.6-1.5c1-0.9,1.7-2.2,1.9-3.6L38,14.7c0-0.1,0-0.3,0-0.4S37.8,14.1,37.8,14z M12.9,8.9
			c0-1.7,0.6-3.4,1.8-4.6c1.1-1.2,2.7-1.9,4.3-1.9c1.6,0,3.2,0.7,4.3,1.9c1.1,1.2,1.8,2.9,1.8,4.6v4.8H12.9V8.9z M32.6,35
			c-0.2,0.9-0.6,1.8-1.3,2.4c-0.7,0.6-1.5,0.9-2.4,1H9.1c-0.9,0-1.7-0.3-2.4-1C6,36.8,5.6,36,5.4,35L2.1,15.7h33.9L32.6,35z"/>
		<path d="M26,25.5c0.1,0,0.2,0,0.4-0.1c0.1-0.1,0.2-0.1,0.3-0.2c0.1-0.1,0.2-0.2,0.2-0.3c0-0.1,0.1-0.3,0.1-0.4v-3
			c0-0.1,0-0.3-0.1-0.4c0-0.1-0.1-0.2-0.2-0.3c-0.1-0.1-0.2-0.2-0.3-0.2c-0.1-0.1-0.2-0.1-0.4-0.1s-0.2,0-0.4,0.1
			c-0.1,0.1-0.2,0.1-0.3,0.2c-0.1,0.1-0.2,0.2-0.2,0.3c0,0.1-0.1,0.3-0.1,0.4v3c0,0.3,0.1,0.5,0.3,0.7C25.5,25.4,25.8,25.5,26,25.5z
			"/>
		<path d="M12,25.5c0.2,0,0.5-0.1,0.7-0.3c0.2-0.2,0.3-0.4,0.3-0.7v-3c0-0.3-0.1-0.5-0.3-0.7c-0.2-0.2-0.4-0.3-0.7-0.3
			c-0.2,0-0.5,0.1-0.7,0.3C11.1,21,11,21.2,11,21.5v3c0,0.3,0.1,0.5,0.3,0.7C11.5,25.4,11.7,25.5,12,25.5z"/>
	</g>
</g>
</svg>
